X: 13265
T: Five Mile Chase, The
R: reel
M: 4/4
K: Gmajor
|:G2 BG dGBG|FADA FADA|G2 BG dGBd|1 egfa gedB:|2 egfa g3 B||
G2BG dGBG|FADA FADA|G2BG dGBd|egfa g3B:|
gd (3Bcd ed (3Bcd|gabg fgaf|gd (3Bcd ed (3Bcd|gabf g3 f|
gabg fgaf|e3 d BABd|e3 f edBd|edfd gedB||

